X: 287
T: Marino Waltz
R: waltz
M: 3/4
L: 1/8
K: Gmaj
d e>f|"G"g2d3B | "Bm"F4B2 | "C"E4c2 | "D"D6 | "C"C2D2E2 | "D"F2D3A | "G"G2D2B2 | "D"A3 d e>f|
"G"g2d3B | "D"F4f2 | "C"e2d3c | E4e2 | "D"d2c2A2 |F4B2 | "G"G6 |1 G6 :|2 G4D2 ||
"D"D2E2F2 | "G"G2A2B2 | "Bm"B6 | "D"F6 | "C"E6 | c4E2 | G6 | "D"F6 |
"C"C2D2E2 | "D"F2D2A2 | "G"G2D2d2 | "C"e4d2 | "D7"c2A2F2 | "D"D4B2 | "G"G6 | G6 :|

